X: 35240
T: Roscommon, The
R: reel
M: 4/4
K: Edorian
|EFGA BAGB|AFdF eFdF|EFGA BAGB|AFDE FE(3EEE|
EFGA BAGB|AFdF eFdF|EFGA BAGB|AFDE FE E2|
e~B3 efge|(3fgf af bfaf|e~B3 ~g3e|fedf (3efe gf|
e~B3 efge|(3fgf af bfaf|fgge ~f3e|dBAd BAFA|
~B3B BAGB|AF(3FFF DFAF|EBBA (3Bcd ec|dBAd B~E3|
A~B3 BAGB|AF (3FFF DFAF|EBBA (3Bcd ec|dBAd B~E3|

